X: 1
T: Finnskogspols fran \Osterdalen
S: http://www.youtube.com/watch?v=pndQ_ce49cg 2009-20-20
Z: 2009 John Chambers <jc@trillian.mit.edu>
M: 7/8
L: 1/8
K: Gm
|: "Gm"d3- "D7"d2 cA | "Gm"B2c dB BA \
|1,3 "Gm"G2A Bc dB | "D7"BA2 A4 \
:|2,4 "Gm"G2A "D7"Bc AB | "Gm"G3- G4 :|
|: "Gm"B3 "D7"d2 c2 | "D7"AB2 "Gm"cA B2 \
|1,3 "Gm"G2A Bc dB | "D7"BA2 A4 \
:|2,4 "Gm"G2A "D7"Bc AB | "Gm"G3- G4 :|
